docs/images/icons/sv_fit.svg

<svg width="88" height="51" viewBox="0 0 88 51" fill="none" xmlns="http://www.w3.org/2000/svg">
<g id="sv fit 1" clip-path="url(#clip0_372_1999)">
<path id="Vector" d="M77.7272 3.15092C75.5736 1.00105 71.3387 0 64.4001 0H36.6331C21.3133 0 13.0552 5.32516 9.85767 17.2661L9.22711 19.605C7.93081 24.4441 8.34916 28.2826 10.4726 31.0131C12.8993 34.1341 17.5143 35.7168 24.189 35.7168H36.1171C34.7696 34.7107 33.7035 32.8415 34.9149 28.8353H26.0268C22.3028 28.8353 19.7614 27.9517 18.4748 26.2093C17.3061 24.6282 17.1804 22.3798 18.0996 19.5264L18.782 17.396C21.0714 10.2229 26.5935 6.88195 36.1609 6.88195H65.1357C69.3394 6.88195 70.9777 7.84717 70.9777 10.3244C70.9777 13.7346 67.7384 15.6903 62.0896 15.6903H56.2215L54.4903 19.9747H62.1947C64.8174 19.9747 66.4335 20.3861 67.2828 21.2707C67.8053 21.8161 68.0346 22.5415 67.9848 23.4868C67.7701 27.0865 64.7601 28.8353 58.7814 28.8353H47.6502H47.1714L47.3414 28.393L54.3133 10.3393H45.9315L39.9226 25.3043L39.9196 25.3128L39.9151 25.3213C38.208 28.9756 37.9043 31.6981 39.0119 33.4122C40.0006 34.9416 42.1642 35.7168 45.4447 35.7168H57.837C63.8675 35.7168 68.547 34.6381 71.7449 32.5121C74.9103 30.4066 76.5149 27.3293 76.5149 23.3654C76.5149 20.7976 74.5291 18.6288 71.5736 17.9691L70.3381 17.6929L71.5528 17.3388C75.1889 16.277 79.455 13.2176 79.5083 8.08748C79.5264 5.98041 78.9436 4.3649 77.7272 3.15092Z" fill="#F03F53"/>
<path id="Vector_2" d="M3.21463 50.8926H4.99516L5.17869 49.9721H5.24758C7.70593 49.9721 9.89829 48.7801 9.89829 46.1546C9.89829 44.2001 8.50946 43.2922 6.48858 43.2922L6.62635 42.5991H4.84581L4.70804 43.2922C1.62968 43.2922 0 44.9156 0 47.0983C0 49.0636 1.49191 49.9721 3.3524 49.9721H3.39866L3.21463 50.8926ZM6.18988 44.938C7.15483 44.938 8.05088 45.2226 8.05088 46.3366C8.05088 47.6098 7.17746 48.3258 5.56939 48.3258H5.5005L6.16676 44.938H6.18988ZM1.84791 46.9048C1.84791 45.6316 2.75503 44.938 4.38622 44.938L3.71996 48.3258H3.68578C2.46791 48.3258 1.84791 47.8257 1.84791 46.9048ZM12.3677 50.7219L17.203 46.0755L16.2843 50.7219H18.0643L19.6261 42.7693H18.1442L13.3326 47.4391L14.2513 42.7693H12.4713L10.9095 50.7219H12.3677ZM20.9123 44.4156H23.4843L22.2444 50.7219H24.0244L25.2649 44.4156H27.8485L28.1703 42.7693H21.2336L20.9123 44.4156ZM33.5677 50.7219H35.3477L36.9096 42.7693H35.1295L34.521 45.8943H30.9495L31.5578 42.7693H29.7778L28.2161 50.7219H29.9961L30.6161 47.5401H34.1877L33.5677 50.7219ZM37.7015 50.7219H43.9492L44.271 49.0765H39.8039L40.1135 47.4834H44.1906L44.5119 45.8943H40.4354L40.7225 44.4156H45.0867L45.4079 42.7693H39.2638L37.7015 50.7219ZM52.688 48.1556C52.1364 48.7915 51.3217 49.1551 50.3684 49.1551C49.0359 49.1551 48.152 48.2915 48.152 47.0645C48.152 45.5754 49.3004 44.336 51.0346 44.336C51.9649 44.336 52.5391 44.6768 52.952 45.1883L54.2387 44.1768C53.6865 43.2688 52.7569 42.633 51.1493 42.633C48.2549 42.633 46.3045 44.6654 46.3045 47.2003C46.3045 49.8139 48.2781 50.8588 50.288 50.8588C51.8497 50.8588 53.0556 50.2572 53.7449 49.2576L52.688 48.1556ZM68.6479 48.1556C68.0968 48.7915 67.2818 49.1551 66.3284 49.1551C64.9963 49.1551 64.1119 48.2915 64.1119 47.0645C64.1119 45.5754 65.2603 44.336 66.9947 44.336C67.9248 44.336 68.4986 44.6768 68.9124 45.1883L70.1981 44.1768C69.6476 43.2688 68.7173 42.633 67.1093 42.633C64.2155 42.633 62.2644 44.6654 62.2644 47.2003C62.2644 49.8139 64.2386 50.8588 66.2479 50.8588C67.8097 50.8588 69.016 50.2572 69.7049 49.2576L68.6479 48.1556ZM76.2859 50.7219H78.0661L79.6278 42.7693H72.5077L70.9459 50.7219H72.726L73.9659 44.4156H77.5265L76.2859 50.7219ZM79.6278 50.7219H81.6034L82.5448 49.2447H85.8524L86.22 50.7219H88L86.036 42.7693H84.715L79.6278 50.7219ZM84.9337 45.4396L85.4964 47.7576H83.464L84.9337 45.4396Z" fill="#444142"/>
<path id="Vector_3" d="M58.0191 48.2117C58.8805 48.2117 59.5789 47.5206 59.5789 46.6684C59.5789 45.8161 58.8805 45.125 58.0191 45.125C57.1578 45.125 56.4594 45.8161 56.4594 46.6684C56.4594 47.5206 57.1578 48.2117 58.0191 48.2117Z" fill="#F03F53"/>
</g>
<defs>
<clipPath id="clip0_372_1999">
<rect width="88" height="51" fill="white"/>
</clipPath>
</defs>
</svg>

<svg width="88" height="51" fill="none" xmlns="http://www.w3.org/2000/svg"><g clip-path="url(#a)"><path d="M77.727 3.15C75.574 1.002 71.34 0 64.4 0H36.633C21.313 0 13.055 5.325 9.858 17.266l-.63 2.339c-1.297 4.84-.879 8.678 1.245 11.408 2.426 3.121 7.041 4.704 13.716 4.704h11.928c-1.347-1.006-2.413-2.875-1.202-6.882h-8.888c-3.724 0-6.266-.883-7.552-2.626-1.169-1.58-1.295-3.83-.375-6.683l.682-2.13c2.29-7.173 7.811-10.514 17.379-10.514h28.975c4.203 0 5.842.965 5.842 3.442 0 3.41-3.24 5.366-8.888 5.366h-5.87l-1.73 4.285h7.704c2.622 0 4.238.411 5.088 1.296.522.545.752 1.27.702 2.216-.215 3.6-3.225 5.348-9.204 5.348H47.171l.17-.442 6.972-18.054h-8.382l-6.008 14.965-.003.009-.005.008c-1.707 3.655-2.01 6.377-.903 8.091.989 1.53 3.152 2.305 6.433 2.305h12.392c6.03 0 10.71-1.079 13.908-3.205 3.165-2.105 4.77-5.183 4.77-9.147 0-2.567-1.986-4.736-4.941-5.396l-1.236-.276 1.215-.354c3.636-1.062 7.902-4.121 7.955-9.252.018-2.107-.564-3.722-1.78-4.936Z" fill="#F03F53"/><path d="M3.215 50.893h1.78l.184-.92h.069c2.458 0 4.65-1.193 4.65-3.818 0-1.955-1.389-2.863-3.41-2.863l.138-.693h-1.78l-.138.693C1.63 43.292 0 44.916 0 47.098c0 1.966 1.492 2.874 3.352 2.874H3.4l-.184.92Zm2.975-5.955c.965 0 1.86.285 1.86 1.399 0 1.273-.873 1.989-2.48 1.989H5.5l.667-3.388h.023Zm-4.342 1.967c0-1.273.907-1.967 2.538-1.967l-.666 3.388h-.034c-1.218 0-1.838-.5-1.838-1.421Zm10.52 3.817 4.835-4.647-.919 4.647h1.78l1.562-7.953h-1.482l-4.811 4.67.918-4.67h-1.78l-1.562 7.953h1.459Zm8.544-6.306h2.572l-1.24 6.306h1.78l1.24-6.306h2.585l.321-1.647h-6.936l-.322 1.647Zm12.656 6.306h1.78l1.562-7.953h-1.78l-.609 3.125h-3.572l.609-3.125h-1.78l-1.562 7.953h1.78l.62-3.182h3.572l-.62 3.182Zm4.134 0h6.247l.322-1.645h-4.467l.31-1.594h4.077l.32-1.589h-4.076l.287-1.478h4.365l.32-1.647h-6.143L37.7 50.722Zm14.986-2.566c-.552.636-1.366 1-2.32 1-1.332 0-2.216-.864-2.216-2.091 0-1.49 1.148-2.729 2.883-2.729.93 0 1.504.34 1.917.852l1.287-1.011c-.552-.908-1.482-1.544-3.09-1.544-2.894 0-4.845 2.032-4.845 4.567 0 2.614 1.974 3.659 3.984 3.659 1.562 0 2.768-.602 3.457-1.601l-1.057-1.102Zm15.96 0c-.551.636-1.366 1-2.32 1-1.332 0-2.216-.864-2.216-2.091 0-1.49 1.148-2.729 2.883-2.729.93 0 1.504.34 1.917.852l1.286-1.011c-.55-.908-1.48-1.544-3.089-1.544-2.893 0-4.845 2.032-4.845 4.567 0 2.614 1.975 3.659 3.984 3.659 1.562 0 2.768-.602 3.457-1.601l-1.057-1.102Zm7.638 2.566h1.78l1.562-7.953h-7.12l-1.562 7.953h1.78l1.24-6.306h3.56l-1.24 6.306Zm3.342 0h1.975l.942-1.477h3.307l.368 1.477H88l-1.964-7.953h-1.321l-5.087 7.953Zm5.306-5.282.562 2.318h-2.032l1.47-2.318Z" fill="#444142"/><path d="M58.02 48.212c.86 0 1.559-.691 1.559-1.544 0-.852-.699-1.543-1.56-1.543-.861 0-1.56.691-1.56 1.543 0 .853.699 1.544 1.56 1.544Z" fill="#F03F53"/></g><defs><clipPath id="a"><path fill="#fff" d="M0 0h88v51H0z"/></clipPath></defs></svg>
